X: 1
T: Brown Jug
M: 2/4
L: 1/8
R: polka
K: Dmaj
FA A2|GB B2|cc/c/ Bc|de f2|
FA A2|GB B2|cc/c/ Bc|ed d2:|
fg/f/ ed|cB B2|cc/c/ Bc|de f2|
fg/f/ ed|cB B2|cc/c/ Bc|ed d2:|
